images/content/johnson-solids/elongated-square-pyramid.svg

<?xml version="1.0" encoding="UTF-8"?>
<svg xmlns="http://www.w3.org/2000/svg" xmlns:xlink="http://www.w3.org/1999/xlink" width="184.59pt" height="188.22pt" viewBox="0 0 184.59 188.22" version="1.2">
<defs>
<clipPath id="clip1">
  <path d="M 128 75 L 184.003906 75 L 184.003906 159 L 128 159 Z M 128 75 "/>
</clipPath>
<clipPath id="clip2">
  <path d="M 128 0 L 184.003906 0 L 184.003906 78 L 128 78 Z M 128 0 "/>
</clipPath>
<clipPath id="clip3">
  <path d="M 6 97 L 176 97 L 176 187.441406 L 6 187.441406 Z M 6 97 "/>
</clipPath>
<clipPath id="clip4">
  <path d="M 6 97 L 177 97 L 177 187.441406 L 6 187.441406 Z M 6 97 "/>
</clipPath>
<clipPath id="clip5">
  <path d="M 0.175781 0 L 132 0 L 132 98 L 0.175781 98 Z M 0.175781 0 "/>
</clipPath>
<clipPath id="clip6">
  <path d="M 0.175781 0 L 133 0 L 133 99 L 0.175781 99 Z M 0.175781 0 "/>
</clipPath>
<clipPath id="clip7">
  <path d="M 0.175781 20 L 37 20 L 37 187.441406 L 0.175781 187.441406 Z M 0.175781 20 "/>
</clipPath>
<clipPath id="clip8">
  <path d="M 0.175781 20 L 38 20 L 38 187.441406 L 0.175781 187.441406 Z M 0.175781 20 "/>
</clipPath>
<clipPath id="clip9">
  <path d="M 0.175781 0 L 132 0 L 132 21 L 0.175781 21 Z M 0.175781 0 "/>
</clipPath>
<clipPath id="clip10">
  <path d="M 0.175781 0 L 133 0 L 133 22 L 0.175781 22 Z M 0.175781 0 "/>
</clipPath>
<clipPath id="clip11">
  <path d="M 86 0 L 184.003906 0 L 184.003906 78 L 86 78 Z M 86 0 "/>
</clipPath>
<clipPath id="clip12">
  <path d="M 0.175781 20 L 37 20 L 37 187.441406 L 0.175781 187.441406 Z M 0.175781 20 "/>
</clipPath>
<clipPath id="clip13">
  <path d="M 0.175781 20 L 38 20 L 38 187.441406 L 0.175781 187.441406 Z M 0.175781 20 "/>
</clipPath>
<clipPath id="clip14">
  <path d="M 0.175781 2 L 88 2 L 88 106 L 0.175781 106 Z M 0.175781 2 "/>
</clipPath>
<clipPath id="clip15">
  <path d="M 31 105 L 176 105 L 176 187.441406 L 31 187.441406 Z M 31 105 "/>
</clipPath>
<clipPath id="clip16">
  <path d="M 31 104 L 177 104 L 177 187.441406 L 31 187.441406 Z M 31 104 "/>
</clipPath>
<clipPath id="clip17">
  <path d="M 31 76 L 184.003906 76 L 184.003906 159 L 31 159 Z M 31 76 "/>
</clipPath>
<clipPath id="clip18">
  <path d="M 31 2 L 184.003906 2 L 184.003906 106 L 31 106 Z M 31 2 "/>
</clipPath>
</defs>
<g id="surface1">
<path style="fill-rule:nonzero;fill:rgb(67.225647%,75.384521%,90.493774%);fill-opacity:1;stroke-width:6.57074;stroke-linecap:round;stroke-linejoin:round;stroke:rgb(13.729858%,12.159729%,12.548828%);stroke-opacity:1;stroke-miterlimit:10;" d="M 1762.576979 298.594171 L 1290.629259 1121.403957 L 68.044609 900.453033 " transform="matrix(0.0995873,0,0,-0.0995873,0.176746,187.443219)"/>
<path style="fill-rule:nonzero;fill:rgb(76.217651%,53.546143%,61.395264%);fill-opacity:1;stroke-width:6.57074;stroke-linecap:round;stroke-linejoin:round;stroke:rgb(13.729858%,12.159729%,12.548828%);stroke-opacity:1;stroke-miterlimit:10;" d="M 68.044609 900.453033 L 1290.629259 1121.403957 L 1322.871698 1878.905152 " transform="matrix(0.0995873,0,0,-0.0995873,0.176746,187.443219)"/>
<path style=" stroke:none;fill-rule:nonzero;fill:rgb(20.097351%,19.770813%,54.646301%);fill-opacity:1;" d="M 128.707031 75.765625 L 175.707031 157.707031 L 183.679688 77.085938 "/>
<g clip-path="url(#clip1)" clip-rule="nonzero">
<path style="fill:none;stroke-width:6.57074;stroke-linecap:round;stroke-linejoin:round;stroke:rgb(13.729858%,12.159729%,12.548828%);stroke-opacity:1;stroke-miterlimit:10;" d="M 1290.629259 1121.403957 L 1762.576979 298.594171 L 1842.633936 1108.146117 " transform="matrix(0.0995873,0,0,-0.0995873,0.176746,187.443219)"/>
</g>
<path style=" stroke:none;fill-rule:nonzero;fill:rgb(20.097351%,19.770813%,54.646301%);fill-opacity:1;" d="M 183.679688 77.085938 L 131.917969 0.328125 L 128.707031 75.765625 "/>
<g clip-path="url(#clip2)" clip-rule="nonzero">
<path style="fill:none;stroke-width:6.57074;stroke-linecap:round;stroke-linejoin:round;stroke:rgb(13.729858%,12.159729%,12.548828%);stroke-opacity:1;stroke-miterlimit:10;" d="M 1842.633936 1108.146117 L 1322.871698 1878.905152 L 1290.629259 1121.403957 " transform="matrix(0.0995873,0,0,-0.0995873,0.176746,187.443219)"/>
</g>
<g clip-path="url(#clip3)" clip-rule="nonzero">
<path style=" stroke:none;fill-rule:nonzero;fill:rgb(67.225647%,75.384521%,90.493774%);fill-opacity:1;" d="M 6.953125 97.769531 L 36.722656 187.117188 L 175.707031 157.707031 "/>
</g>
<g clip-path="url(#clip4)" clip-rule="nonzero">
<path style="fill:none;stroke-width:6.57074;stroke-linecap:round;stroke-linejoin:round;stroke:rgb(13.729858%,12.159729%,12.548828%);stroke-opacity:1;stroke-miterlimit:10;" d="M 68.044609 900.453033 L 366.973596 3.273827 L 1762.576979 298.594171 " transform="matrix(0.0995873,0,0,-0.0995873,0.176746,187.443219)"/>
</g>
<g clip-path="url(#clip5)" clip-rule="nonzero">
<path style=" stroke:none;fill-rule:nonzero;fill:rgb(76.217651%,53.546143%,61.395264%);fill-opacity:1;" d="M 131.917969 0.328125 L 0.503906 20.761719 L 6.953125 97.769531 "/>
</g>
<g clip-path="url(#clip6)" clip-rule="nonzero">
<path style="fill:none;stroke-width:6.57074;stroke-linecap:round;stroke-linejoin:round;stroke:rgb(13.729858%,12.159729%,12.548828%);stroke-opacity:1;stroke-miterlimit:10;" d="M 1322.871698 1878.905152 L 3.28516 1673.722429 L 68.044609 900.453033 " transform="matrix(0.0995873,0,0,-0.0995873,0.176746,187.443219)"/>
</g>
<g clip-path="url(#clip7)" clip-rule="nonzero">
<path style=" stroke:none;fill-rule:nonzero;fill:rgb(11.682129%,13.179016%,26.483154%);fill-opacity:1;" d="M 36.722656 187.117188 L 6.953125 97.769531 L 0.503906 20.761719 "/>
</g>
<g clip-path="url(#clip8)" clip-rule="nonzero">
<path style="fill:none;stroke-width:6.57074;stroke-linecap:round;stroke-linejoin:round;stroke:rgb(13.729858%,12.159729%,12.548828%);stroke-opacity:1;stroke-miterlimit:10;" d="M 366.973596 3.273827 L 68.044609 900.453033 L 3.28516 1673.722429 " transform="matrix(0.0995873,0,0,-0.0995873,0.176746,187.443219)"/>
</g>
<g clip-path="url(#clip9)" clip-rule="nonzero">
<path style=" stroke:none;fill-rule:nonzero;fill:rgb(29.492188%,7.066345%,9.454346%);fill-opacity:1;" d="M 131.917969 0.328125 L 0.503906 20.761719 L 87.035156 2.699219 L 131.917969 0.328125 "/>
</g>
<g clip-path="url(#clip10)" clip-rule="nonzero">
<path style="fill:none;stroke-width:6.57074;stroke-linecap:round;stroke-linejoin:round;stroke:rgb(13.729858%,12.159729%,12.548828%);stroke-opacity:1;stroke-miterlimit:10;" d="M 1322.871698 1878.905152 L 3.28516 1673.722429 L 872.18359 1855.095955 Z M 1322.871698 1878.905152 " transform="matrix(0.0995873,0,0,-0.0995873,0.176746,187.443219)"/>
</g>
<path style=" stroke:none;fill-rule:nonzero;fill:rgb(78.443909%,92.689514%,91.087341%);fill-opacity:1;" d="M 183.679688 77.085938 L 131.917969 0.328125 L 87.035156 2.699219 L 183.679688 77.085938 "/>
<g clip-path="url(#clip11)" clip-rule="nonzero">
<path style="fill:none;stroke-width:6.57074;stroke-linecap:round;stroke-linejoin:round;stroke:rgb(13.729858%,12.159729%,12.548828%);stroke-opacity:1;stroke-miterlimit:10;" d="M 1842.633936 1108.146117 L 1322.871698 1878.905152 L 872.18359 1855.095955 Z M 1842.633936 1108.146117 " transform="matrix(0.0995873,0,0,-0.0995873,0.176746,187.443219)"/>
</g>
<g clip-path="url(#clip12)" clip-rule="nonzero">
<path style=" stroke:none;fill-rule:nonzero;fill:rgb(11.682129%,13.179016%,26.483154%);fill-opacity:1;" d="M 0.503906 20.761719 L 31.960938 105.085938 L 36.722656 187.117188 "/>
</g>
<g clip-path="url(#clip13)" clip-rule="nonzero">
<path style="fill:none;stroke-width:6.57074;stroke-linecap:round;stroke-linejoin:round;stroke:rgb(13.729858%,12.159729%,12.548828%);stroke-opacity:1;stroke-miterlimit:10;" d="M 3.28516 1673.722429 L 319.159079 826.985773 L 366.973596 3.273827 " transform="matrix(0.0995873,0,0,-0.0995873,0.176746,187.443219)"/>
</g>
<g clip-path="url(#clip14)" clip-rule="nonzero">
<path style=" stroke:none;fill-rule:nonzero;fill:rgb(45.56427%,57.575989%,82.725525%);fill-opacity:1;" d="M 0.503906 20.761719 L 31.960938 105.085938 L 87.035156 2.699219 L 0.503906 20.761719 "/>
<path style="fill:none;stroke-width:6.57074;stroke-linecap:round;stroke-linejoin:round;stroke:rgb(13.729858%,12.159729%,12.548828%);stroke-opacity:1;stroke-miterlimit:10;" d="M 3.28516 1673.722429 L 319.159079 826.985773 L 872.18359 1855.095955 Z M 3.28516 1673.722429 " transform="matrix(0.0995873,0,0,-0.0995873,0.176746,187.443219)"/>
</g>
<g clip-path="url(#clip15)" clip-rule="nonzero">
<path style=" stroke:none;fill-rule:nonzero;fill:rgb(76.567078%,51.24054%,56.706238%);fill-opacity:1;" d="M 175.707031 157.707031 L 36.722656 187.117188 L 31.960938 105.085938 "/>
</g>
<g clip-path="url(#clip16)" clip-rule="nonzero">
<path style="fill:none;stroke-width:6.57074;stroke-linecap:round;stroke-linejoin:round;stroke:rgb(13.729858%,12.159729%,12.548828%);stroke-opacity:1;stroke-miterlimit:10;" d="M 1762.576979 298.594171 L 366.973596 3.273827 L 319.159079 826.985773 " transform="matrix(0.0995873,0,0,-0.0995873,0.176746,187.443219)"/>
</g>
<path style=" stroke:none;fill-rule:nonzero;fill:rgb(76.567078%,51.24054%,56.706238%);fill-opacity:1;" d="M 31.960938 105.085938 L 183.679688 77.085938 L 175.707031 157.707031 "/>
<g clip-path="url(#clip17)" clip-rule="nonzero">
<path style="fill:none;stroke-width:6.57074;stroke-linecap:round;stroke-linejoin:round;stroke:rgb(13.729858%,12.159729%,12.548828%);stroke-opacity:1;stroke-miterlimit:10;" d="M 319.159079 826.985773 L 1842.633936 1108.146117 L 1762.576979 298.594171 " transform="matrix(0.0995873,0,0,-0.0995873,0.176746,187.443219)"/>
</g>
<path style=" stroke:none;fill-rule:nonzero;fill:rgb(74.253845%,69.004822%,82.061768%);fill-opacity:1;" d="M 31.960938 105.085938 L 183.679688 77.085938 L 87.035156 2.699219 L 31.960938 105.085938 "/>
<g clip-path="url(#clip18)" clip-rule="nonzero">
<path style="fill:none;stroke-width:6.57074;stroke-linecap:round;stroke-linejoin:round;stroke:rgb(13.729858%,12.159729%,12.548828%);stroke-opacity:1;stroke-miterlimit:10;" d="M 319.159079 826.985773 L 1842.633936 1108.146117 L 872.18359 1855.095955 Z M 319.159079 826.985773 " transform="matrix(0.0995873,0,0,-0.0995873,0.176746,187.443219)"/>
</g>
</g>
</svg>

<svg xmlns="http://www.w3.org/2000/svg" width="246.12" height="250.96" viewBox="0 0 184.59 188.22" version="1.2"><defs><clipPath id="a"><path d="M128 75h56.004v84H128Zm0 0"/></clipPath><clipPath id="b"><path d="M128 0h56.004v78H128Zm0 0"/></clipPath><clipPath id="c"><path d="M6 97h170v90.441H6Zm0 0"/></clipPath><clipPath id="d"><path d="M6 97h171v90.441H6Zm0 0"/></clipPath><clipPath id="e"><path d="M.176 0H132v98H.176Zm0 0"/></clipPath><clipPath id="f"><path d="M.176 0H133v99H.176Zm0 0"/></clipPath><clipPath id="g"><path d="M.176 20H37v167.441H.176Zm0 0"/></clipPath><clipPath id="h"><path d="M.176 20H38v167.441H.176Zm0 0"/></clipPath><clipPath id="i"><path d="M.176 0H132v21H.176Zm0 0"/></clipPath><clipPath id="j"><path d="M.176 0H133v22H.176Zm0 0"/></clipPath><clipPath id="k"><path d="M86 0h98.004v78H86Zm0 0"/></clipPath><clipPath id="l"><path d="M.176 20H37v167.441H.176Zm0 0"/></clipPath><clipPath id="m"><path d="M.176 20H38v167.441H.176Zm0 0"/></clipPath><clipPath id="n"><path d="M.176 2H88v104H.176Zm0 0"/></clipPath><clipPath id="o"><path d="M31 105h145v82.441H31Zm0 0"/></clipPath><clipPath id="p"><path d="M31 104h146v83.441H31Zm0 0"/></clipPath><clipPath id="q"><path d="M31 76h153.004v83H31Zm0 0"/></clipPath><clipPath id="r"><path d="M31 2h153.004v104H31Zm0 0"/></clipPath></defs><path style="fill-rule:nonzero;fill:#abc0e7;fill-opacity:1;stroke-width:6.57074;stroke-linecap:round;stroke-linejoin:round;stroke:#231f20;stroke-opacity:1;stroke-miterlimit:10" d="m1762.577 298.594-471.948 822.81L68.045 900.453" transform="matrix(.09959 0 0 -.09959 .177 187.443)"/><path style="fill-rule:nonzero;fill:#c2899d;fill-opacity:1;stroke-width:6.57074;stroke-linecap:round;stroke-linejoin:round;stroke:#231f20;stroke-opacity:1;stroke-miterlimit:10" d="m68.045 900.453 1222.584 220.951 32.243 757.501" transform="matrix(.09959 0 0 -.09959 .177 187.443)"/><path style="stroke:none;fill-rule:nonzero;fill:#33328b;fill-opacity:1" d="m128.707 75.766 47 81.941 7.973-80.621"/><g clip-path="url(#a)"><path style="fill:none;stroke-width:6.57074;stroke-linecap:round;stroke-linejoin:round;stroke:#231f20;stroke-opacity:1;stroke-miterlimit:10" d="m1290.63 1121.404 471.947-822.81 80.057 809.552" transform="matrix(.09959 0 0 -.09959 .177 187.443)"/></g><path style="stroke:none;fill-rule:nonzero;fill:#33328b;fill-opacity:1" d="M183.68 77.086 131.918.328l-3.211 75.438"/><g clip-path="url(#b)"><path style="fill:none;stroke-width:6.57074;stroke-linecap:round;stroke-linejoin:round;stroke:#231f20;stroke-opacity:1;stroke-miterlimit:10" d="m1842.634 1108.146-519.762 770.76-32.243-757.502" transform="matrix(.09959 0 0 -.09959 .177 187.443)"/></g><g clip-path="url(#c)"><path style="stroke:none;fill-rule:nonzero;fill:#abc0e7;fill-opacity:1" d="m6.953 97.77 29.77 89.347 138.984-29.41"/></g><g clip-path="url(#d)"><path style="fill:none;stroke-width:6.57074;stroke-linecap:round;stroke-linejoin:round;stroke:#231f20;stroke-opacity:1;stroke-miterlimit:10" d="M68.045 900.453 366.974 3.273l1395.603 295.321" transform="matrix(.09959 0 0 -.09959 .177 187.443)"/></g><g clip-path="url(#e)"><path style="stroke:none;fill-rule:nonzero;fill:#c2899d;fill-opacity:1" d="M131.918.328.504 20.762l6.45 77.008"/></g><g clip-path="url(#f)"><path style="fill:none;stroke-width:6.57074;stroke-linecap:round;stroke-linejoin:round;stroke:#231f20;stroke-opacity:1;stroke-miterlimit:10" d="M1322.872 1878.905 3.285 1673.722l64.76-773.269" transform="matrix(.09959 0 0 -.09959 .177 187.443)"/></g><g clip-path="url(#g)"><path style="stroke:none;fill-rule:nonzero;fill:#1e2244;fill-opacity:1" d="M36.723 187.117 6.953 97.77.503 20.762"/></g><g clip-path="url(#h)"><path style="fill:none;stroke-width:6.57074;stroke-linecap:round;stroke-linejoin:round;stroke:#231f20;stroke-opacity:1;stroke-miterlimit:10" d="M366.974 3.274 68.044 900.453l-64.759 773.27" transform="matrix(.09959 0 0 -.09959 .177 187.443)"/></g><g clip-path="url(#i)"><path style="stroke:none;fill-rule:nonzero;fill:#4b1218;fill-opacity:1" d="M131.918.328.504 20.762 87.035 2.699 131.918.33"/></g><g clip-path="url(#j)"><path style="fill:none;stroke-width:6.57074;stroke-linecap:round;stroke-linejoin:round;stroke:#231f20;stroke-opacity:1;stroke-miterlimit:10" d="M1322.872 1878.905 3.285 1673.722l868.899 181.374Zm0 0" transform="matrix(.09959 0 0 -.09959 .177 187.443)"/></g><path style="stroke:none;fill-rule:nonzero;fill:#c8ece8;fill-opacity:1" d="M183.68 77.086 131.918.328 87.035 2.7l96.645 74.387"/><g clip-path="url(#k)"><path style="fill:none;stroke-width:6.57074;stroke-linecap:round;stroke-linejoin:round;stroke:#231f20;stroke-opacity:1;stroke-miterlimit:10" d="m1842.634 1108.146-519.762 770.76-450.688-23.81Zm0 0" transform="matrix(.09959 0 0 -.09959 .177 187.443)"/></g><g clip-path="url(#l)"><path style="stroke:none;fill-rule:nonzero;fill:#1e2244;fill-opacity:1" d="m.504 20.762 31.457 84.324 4.762 82.031"/></g><g clip-path="url(#m)"><path style="fill:none;stroke-width:6.57074;stroke-linecap:round;stroke-linejoin:round;stroke:#231f20;stroke-opacity:1;stroke-miterlimit:10" d="M3.285 1673.722 319.16 826.986 366.974 3.274" transform="matrix(.09959 0 0 -.09959 .177 187.443)"/></g><g clip-path="url(#n)"><path style="stroke:none;fill-rule:nonzero;fill:#7493d3;fill-opacity:1" d="m.504 20.762 31.457 84.324L87.035 2.699.504 20.762"/><path style="fill:none;stroke-width:6.57074;stroke-linecap:round;stroke-linejoin:round;stroke:#231f20;stroke-opacity:1;stroke-miterlimit:10" d="M3.285 1673.722 319.16 826.986l553.025 1028.11Zm0 0" transform="matrix(.09959 0 0 -.09959 .177 187.443)"/></g><g clip-path="url(#o)"><path style="stroke:none;fill-rule:nonzero;fill:#c38391;fill-opacity:1" d="m175.707 157.707-138.984 29.41-4.762-82.031"/></g><g clip-path="url(#p)"><path style="fill:none;stroke-width:6.57074;stroke-linecap:round;stroke-linejoin:round;stroke:#231f20;stroke-opacity:1;stroke-miterlimit:10" d="M1762.577 298.594 366.974 3.274l-47.815 823.712" transform="matrix(.09959 0 0 -.09959 .177 187.443)"/></g><path style="stroke:none;fill-rule:nonzero;fill:#c38391;fill-opacity:1" d="m31.96 105.086 151.72-28-7.973 80.621"/><g clip-path="url(#q)"><path style="fill:none;stroke-width:6.57074;stroke-linecap:round;stroke-linejoin:round;stroke:#231f20;stroke-opacity:1;stroke-miterlimit:10" d="m319.16 826.986 1523.474 281.16-80.057-809.552" transform="matrix(.09959 0 0 -.09959 .177 187.443)"/></g><path style="stroke:none;fill-rule:nonzero;fill:#bdb0d1;fill-opacity:1" d="m31.96 105.086 151.72-28L87.035 2.699 31.961 105.086"/><g clip-path="url(#r)"><path style="fill:none;stroke-width:6.57074;stroke-linecap:round;stroke-linejoin:round;stroke:#231f20;stroke-opacity:1;stroke-miterlimit:10" d="m319.16 826.986 1523.474 281.16-970.45 746.95Zm0 0" transform="matrix(.09959 0 0 -.09959 .177 187.443)"/></g></svg>
